svgs/sharp-solid/hat-witch.svg

<svg xmlns="http://www.w3.org/2000/svg" viewBox="0 0 576 512"><!--! Font Awesome Pro 6.6.0 by @fontawesome - https://fontawesome.com License - https://fontawesome.com/license (Commercial License) Copyright 2024 Fonticons, Inc. --><path d="M224 128L112 384l112 0 0-80 0-16 16 0 96 0 16 0 0 16 0 80 112 0L384 192l32-64 64 0 32 64L544 88 440 0 224 128zm96 256l0-64-64 0 0 64 64 0zM0 416l0 32 128 64 320 0 128-64 0-32L0 416z"/></svg>

<svg xmlns="http://www.w3.org/2000/svg" viewBox="0 0 576 512"><!--! Font Awesome Pro 6.4.2 by @fontawesome - https://fontawesome.com License - https://fontawesome.com/license (Commercial License) Copyright 2023 Fonticons, Inc. --><path d="M224 128L112 384H224V304 288h16 96 16v16 80H464L384 192l32-64h64l32 64L544 88 440 0 224 128zm96 256V320H256v64h64zM0 416v32l128 64H448l128-64V416H0z"/></svg>
